images/portal/4912.svg

<?xml version="1.0" standalone="no"?><!DOCTYPE svg PUBLIC "-//W3C//DTD SVG 1.1//EN" "http://www.w3.org/Graphics/SVG/1.1/DTD/svg11.dtd"><svg xmlns:xlink="http://www.w3.org/1999/xlink" version="1.1" class="highcharts-root" style="font-family:arial;font-size:12px;" xmlns="http://www.w3.org/2000/svg" width="485" height="415"><desc>Created with Highstock 5.0.14</desc><defs><clipPath id="highcharts-xsnukqq-6"><rect x="0" y="0" width="410" height="308" fill="none"></rect></clipPath><clipPath id="highcharts-xsnukqq-7"><rect x="0" y="0" width="410" height="308" fill="none"></rect></clipPath></defs><rect fill="#fbfbfb" class="highcharts-background" x="0" y="0" width="485" height="415" rx="0" ry="0"></rect><rect fill="none" class="highcharts-plot-background" x="65" y="41" width="410" height="308"></rect><g class="highcharts-pane-group"></g><g class="highcharts-grid highcharts-xaxis-grid "><path fill="none" class="highcharts-grid-line" d="M 78.5 41 L 78.5 349" opacity="1"></path><path fill="none" class="highcharts-grid-line" d="M 127.5 41 L 127.5 349" opacity="1"></path><path fill="none" class="highcharts-grid-line" d="M 176.5 41 L 176.5 349" opacity="1"></path><path fill="none" class="highcharts-grid-line" d="M 225.5 41 L 225.5 349" opacity="1"></path><path fill="none" class="highcharts-grid-line" d="M 274.5 41 L 274.5 349" opacity="1"></path><path fill="none" class="highcharts-grid-line" d="M 323.5 41 L 323.5 349" opacity="1"></path><path fill="none" class="highcharts-grid-line" d="M 372.5 41 L 372.5 349" opacity="1"></path><path fill="none" class="highcharts-grid-line" d="M 421.5 41 L 421.5 349" opacity="1"></path><path fill="none" class="highcharts-grid-line" d="M 470.5 41 L 470.5 349" opacity="1"></path></g><g class="highcharts-grid highcharts-yaxis-grid "><path fill="none" stroke="#B9CFD7" stroke-width="0.5" class="highcharts-grid-line" d="M 65 349.25 L 475 349.25" opacity="1"></path><path fill="none" stroke="#B9CFD7" stroke-width="0.5" class="highcharts-grid-line" d="M 65 287.25 L 475 287.25" opacity="1"></path><path fill="none" stroke="#B9CFD7" stroke-width="0.5" class="highcharts-grid-line" d="M 65 226.25 L 475 226.25" opacity="1"></path><path fill="none" stroke="#B9CFD7" stroke-width="0.5" class="highcharts-grid-line" d="M 65 164.25 L 475 164.25" opacity="1"></path><path fill="none" stroke="#B9CFD7" stroke-width="0.5" class="highcharts-grid-line" d="M 65 103.25 L 475 103.25" opacity="1"></path><path fill="none" stroke="#B9CFD7" stroke-width="0.5" class="highcharts-grid-line" d="M 65 40.75 L 475 40.75" opacity="1"></path></g><rect fill="none" class="highcharts-plot-border" x="65" y="41" width="410" height="308"></rect><g class="highcharts-axis highcharts-xaxis "><path fill="none" class="highcharts-axis-line" stroke="#B9CFD7" stroke-width="0.5" d="M 65 349.25 L 475 349.25"></path></g><g class="highcharts-axis highcharts-yaxis "><path fill="none" class="highcharts-axis-line" d="M 65 41 L 65 349"></path></g><g class="highcharts-series-group"><g class="highcharts-series highcharts-series-0 highcharts-line-series highcharts-color-undefined " transform="translate(65,41) scale(1 1)" clip-path="url(#highcharts-xsnukqq-7)"><path fill="none" d="M 4.019607843138 192.2998 L 13.823529411765 192.88808 L 23.627450980393 186.62644 L 33.43137254902 165.59928000000002 L 43.235294117648 138.57228 L 53.039215686275 159.68876 L 62.843137254903 156.99068 L 72.64705882353 161.69692 L 82.450980392157 144.44276000000002 L 92.254901960785 150.16848000000002 L 102.05882352941 164.53976 L 111.86274509804 164.77076 L 121.66666666667 169.51704 L 131.47058823529 171.03548 L 141.27450980392 179.93052 L 151.07843137255 178.82172 L 160.88235294118 185.83796 L 170.6862745098 165.32516 L 180.49019607843 165.05412 L 190.29411764706 155.04412000000002 L 200.09803921569 160.55424000000002 L 209.90196078431 157.48964 L 219.70588235294 160.8684 L 229.50980392157 145.00948 L 239.3137254902 152.922 L 249.11764705882 149.80196 L 258.92156862745 136.61032 L 268.72549019608 114.60372000000001 L 278.52941176471 109.26608000000002 L 288.33333333333 107.43964 L 298.13725490196 85.69176000000002 L 307.94117647059 86.76052000000001 L 317.74509803922 84.50596000000002 L 327.54901960784 86.62808000000001 L 337.35294117647 94.47284000000002 L 347.1568627451 82.15284 L 356.96078431372 83.34480000000002 L 366.76470588235 85.15276 L 376.56862745098 81.68468000000001 L 386.37254901961 84.16716000000002 L 396.17647058823 69.67268000000001 L 405.98039215686 72.30608000000001" class="highcharts-graph" stroke="#FF8028" stroke-width="2" stroke-linejoin="round" stroke-linecap="round"></path></g><g class="highcharts-markers highcharts-series-0 highcharts-line-series highcharts-color-undefined " transform="translate(65,41) scale(1 1)" clip-path="none"><path fill="#FF8028" d="M 8 192 A 4 4 0 1 1 7.999998000000167 191.99600000066667 Z" class="highcharts-point"></path><path fill="#FF8028" d="M 17 193 A 4 4 0 1 1 16.99999800000017 192.99600000066667 Z" class="highcharts-point"></path><path fill="#FF8028" d="M 27 187 A 4 4 0 1 1 26.99999800000017 186.99600000066667 Z" class="highcharts-point"></path><path fill="#FF8028" d="M 37 166 A 4 4 0 1 1 36.99999800000017 165.99600000066667 Z" class="highcharts-point"></path><path fill="#FF8028" d="M 47 139 A 4 4 0 1 1 46.99999800000017 138.99600000066667 Z" class="highcharts-point"></path><path fill="#FF8028" d="M 57 160 A 4 4 0 1 1 56.99999800000017 159.99600000066667 Z" class="highcharts-point"></path><path fill="#FF8028" d="M 66 157 A 4 4 0 1 1 65.99999800000016 156.99600000066667 Z" class="highcharts-point"></path><path fill="#FF8028" d="M 76 162 A 4 4 0 1 1 75.99999800000016 161.99600000066667 Z" class="highcharts-point"></path><path fill="#FF8028" d="M 86 144 A 4 4 0 1 1 85.99999800000016 143.99600000066667 Z" class="highcharts-point"></path><path fill="#FF8028" d="M 96 150 A 4 4 0 1 1 95.99999800000016 149.99600000066667 Z" class="highcharts-point"></path><path fill="#FF8028" d="M 106 165 A 4 4 0 1 1 105.99999800000016 164.99600000066667 Z" class="highcharts-point"></path><path fill="#FF8028" d="M 115 165 A 4 4 0 1 1 114.99999800000016 164.99600000066667 Z" class="highcharts-point"></path><path fill="#FF8028" d="M 125 170 A 4 4 0 1 1 124.99999800000016 169.99600000066667 Z" class="highcharts-point"></path><path fill="#FF8028" d="M 135 171 A 4 4 0 1 1 134.99999800000018 170.99600000066667 Z" class="highcharts-point"></path><path fill="#FF8028" d="M 145 180 A 4 4 0 1 1 144.99999800000018 179.99600000066667 Z" class="highcharts-point"></path><path fill="#FF8028" d="M 155 179 A 4 4 0 1 1 154.99999800000018 178.99600000066667 Z" class="highcharts-point"></path><path fill="#FF8028" d="M 164 186 A 4 4 0 1 1 163.99999800000018 185.99600000066667 Z" class="highcharts-point"></path><path fill="#FF8028" d="M 174 165 A 4 4 0 1 1 173.99999800000018 164.99600000066667 Z" class="highcharts-point"></path><path fill="#FF8028" d="M 184 165 A 4 4 0 1 1 183.99999800000018 164.99600000066667 Z" class="highcharts-point"></path><path fill="#FF8028" d="M 194 155 A 4 4 0 1 1 193.99999800000018 154.99600000066667 Z" class="highcharts-point"></path><path fill="#FF8028" d="M 204 161 A 4 4 0 1 1 203.99999800000018 160.99600000066667 Z" class="highcharts-point"></path><path fill="#FF8028" d="M 213 157 A 4 4 0 1 1 212.99999800000018 156.99600000066667 Z" class="highcharts-point"></path><path fill="#FF8028" d="M 223 161 A 4 4 0 1 1 222.99999800000018 160.99600000066667 Z" class="highcharts-point"></path><path fill="#FF8028" d="M 233 145 A 4 4 0 1 1 232.99999800000018 144.99600000066667 Z" class="highcharts-point"></path><path fill="#FF8028" d="M 243 153 A 4 4 0 1 1 242.99999800000018 152.99600000066667 Z" class="highcharts-point"></path><path fill="#FF8028" d="M 253 150 A 4 4 0 1 1 252.99999800000018 149.99600000066667 Z" class="highcharts-point"></path><path fill="#FF8028" d="M 262 137 A 4 4 0 1 1 261.9999980000002 136.99600000066667 Z" class="highcharts-point"></path><path fill="#FF8028" d="M 272 115 A 4 4 0 1 1 271.9999980000002 114.99600000066667 Z" class="highcharts-point"></path><path fill="#FF8028" d="M 282 109 A 4 4 0 1 1 281.9999980000002 108.99600000066667 Z" class="highcharts-point"></path><path fill="#FF8028" d="M 292 107 A 4 4 0 1 1 291.9999980000002 106.99600000066667 Z" class="highcharts-point"></path><path fill="#FF8028" d="M 302 86 A 4 4 0 1 1 301.9999980000002 85.99600000066667 Z" class="highcharts-point"></path><path fill="#FF8028" d="M 311 87 A 4 4 0 1 1 310.9999980000002 86.99600000066667 Z" class="highcharts-point"></path><path fill="#FF8028" d="M 321 85 A 4 4 0 1 1 320.9999980000002 84.99600000066667 Z" class="highcharts-point"></path><path fill="#FF8028" d="M 331 87 A 4 4 0 1 1 330.9999980000002 86.99600000066667 Z" class="highcharts-point"></path><path fill="#FF8028" d="M 341 94 A 4 4 0 1 1 340.9999980000002 93.99600000066667 Z" class="highcharts-point"></path><path fill="#FF8028" d="M 351 82 A 4 4 0 1 1 350.9999980000002 81.99600000066667 Z" class="highcharts-point"></path><path fill="#FF8028" d="M 360 83 A 4 4 0 1 1 359.9999980000002 82.99600000066667 Z" class="highcharts-point"></path><path fill="#FF8028" d="M 370 85 A 4 4 0 1 1 369.9999980000002 84.99600000066667 Z" class="highcharts-point"></path><path fill="#FF8028" d="M 380 82 A 4 4 0 1 1 379.9999980000002 81.99600000066667 Z" class="highcharts-point"></path><path fill="#FF8028" d="M 390 84 A 4 4 0 1 1 389.9999980000002 83.99600000066667 Z" class="highcharts-point"></path><path fill="#FF8028" d="M 400 70 A 4 4 0 1 1 399.9999980000002 69.99600000066667 Z" class="highcharts-point"></path><path fill="#FF8028" d="M 409 72 A 4 4 0 1 1 408.9999980000002 71.99600000066667 Z" class="highcharts-point"></path></g></g><text x="10" text-anchor="start" class="highcharts-title" style="color:#000000;font-size:14px;font-weight:bold;fill:#000000;" y="21"><tspan>Anzahl Betreibungen seit 1974</tspan></text><g class="highcharts-data-labels highcharts-series-0 highcharts-line-series highcharts-color-undefined " visibility="visible" transform="translate(65,41) scale(1 1)"><g class="highcharts-label highcharts-data-label highcharts-data-label-color-undefined " transform="translate(-5,194)"><text x="5" style="font-size:11px;font-weight:bold;color:#000000;fill:#000000;" y="16"><tspan x="5" y="16" class="highcharts-text-outline" fill="#FFFFFF" stroke="#FFFFFF" stroke-width="2px" stroke-linejoin="round">37 565</tspan><tspan x="5" y="16">37 565</tspan></text></g><g class="highcharts-label highcharts-data-label highcharts-data-label-color-undefined " transform="translate(372,74)"><text x="5" style="font-size:11px;font-weight:bold;color:#000000;fill:#000000;" y="16"><tspan x="5" y="16" class="highcharts-text-outline" fill="#FFFFFF" stroke="#FFFFFF" stroke-width="2px" stroke-linejoin="round">76 524</tspan><tspan x="5" y="16">76 524</tspan></text></g></g><g class="highcharts-axis-labels highcharts-xaxis-labels "><text x="78.82352941176545" style="color:#000000;cursor:default;font-size:11px;fill:#000000;" text-anchor="middle" transform="translate(0,0)" y="368" opacity="1">1975</text><text x="127.84313725490252" style="color:#000000;cursor:default;font-size:11px;fill:#000000;" text-anchor="middle" transform="translate(0,0)" y="368" opacity="1">1980</text><text x="176.86274509803957" style="color:#000000;cursor:default;font-size:11px;fill:#000000;" text-anchor="middle" transform="translate(0,0)" y="368" opacity="1">1985</text><text x="225.88235294117663" style="color:#000000;cursor:default;font-size:11px;fill:#000000;" text-anchor="middle" transform="translate(0,0)" y="368" opacity="1">1990</text><text x="274.9019607843137" style="color:#000000;cursor:default;font-size:11px;fill:#000000;" text-anchor="middle" transform="translate(0,0)" y="368" opacity="1">1995</text><text x="323.92156862745077" style="color:#000000;cursor:default;font-size:11px;fill:#000000;" text-anchor="middle" transform="translate(0,0)" y="368" opacity="1">2000</text><text x="372.94117647058783" style="color:#000000;cursor:default;font-size:11px;fill:#000000;" text-anchor="middle" transform="translate(0,0)" y="368" opacity="1">2005</text><text x="421.9607843137249" style="color:#000000;cursor:default;font-size:11px;fill:#000000;" text-anchor="middle" transform="translate(0,0)" y="368" opacity="1">2010</text><text x="462.78125" style="color:#000000;cursor:default;font-size:11px;fill:#000000;" text-anchor="middle" transform="translate(0,0)" y="368" opacity="1">2015</text></g><g class="highcharts-axis-labels highcharts-yaxis-labels "><text x="50" style="color:#000000;cursor:default;font-size:11px;fill:#000000;" text-anchor="end" transform="translate(0,0)" y="354" opacity="1"><tspan>0</tspan></text><text x="50" style="color:#000000;cursor:default;font-size:11px;fill:#000000;" text-anchor="end" transform="translate(0,0)" y="292" opacity="1"><tspan>20 000</tspan></text><text x="50" style="color:#000000;cursor:default;font-size:11px;fill:#000000;" text-anchor="end" transform="translate(0,0)" y="230" opacity="1"><tspan>40 000</tspan></text><text x="50" style="color:#000000;cursor:default;font-size:11px;fill:#000000;" text-anchor="end" transform="translate(0,0)" y="169" opacity="1"><tspan>60 000</tspan></text><text x="50" style="color:#000000;cursor:default;font-size:11px;fill:#000000;" text-anchor="end" transform="translate(0,0)" y="107" opacity="1"><tspan>80 000</tspan></text><text x="50" style="color:#000000;cursor:default;font-size:11px;fill:#000000;" text-anchor="end" transform="translate(0,0)" y="46" opacity="1"><tspan>100 000</tspan></text></g><text x="10" class="highcharts-credits" text-anchor="start" style="cursor:default;color:#000000;font-size:10px;fill:#000000;" y="400"><tspan>Quelle: Beitreibungs- und Konkursamt Basel-Stadt</tspan></text></svg>

<svg class="highcharts-root" xmlns="http://www.w3.org/2000/svg" width="485" height="415" font-family="arial" font-size="12">
    <defs>
        <clipPath id="a">
            <path fill="none" d="M0 0h410v308H0z"/>
        </clipPath>
    </defs>
    <rect fill="#fbfbfb" class="highcharts-background" width="485" height="415" rx="0" ry="0"/>
    <path fill="none" class="highcharts-plot-background" d="M65 41h410v308H65z"/>
    <g class="highcharts-grid highcharts-xaxis-grid">
        <path fill="none" class="highcharts-grid-line" d="M78.5 41v308m49-308v308m49-308v308m49-308v308m49-308v308m49-308v308m49-308v308m49-308v308m49-308v308"/>
    </g>
    <g class="highcharts-grid highcharts-yaxis-grid">
        <path fill="none" stroke="#B9CFD7" stroke-width=".5" class="highcharts-grid-line" d="M65 349.25h410m-410-62h410m-410-61h410m-410-62h410m-410-61h410M65 40.75h410"/>
    </g>
    <path fill="none" class="highcharts-plot-border" d="M65 41h410v308H65z"/>
    <g class="highcharts-axis highcharts-xaxis">
        <path fill="none" class="highcharts-axis-line" stroke="#B9CFD7" stroke-width=".5" d="M65 349.25h410"/>
    </g>
    <g class="highcharts-axis highcharts-yaxis">
        <path fill="none" class="highcharts-axis-line" d="M65 41v308"/>
    </g>
    <g class="highcharts-series-group">
        <g class="highcharts-series highcharts-series-0 highcharts-line-series highcharts-color-undefined" transform="translate(65 41)" clip-path="url(#a)">
            <path fill="none" d="M4.02 192.3l9.804.588 9.803-6.262 9.804-21.027 9.804-27.027 9.804 21.117 9.804-2.698 9.804 4.706 9.804-17.254 9.804 5.725 9.804 14.372 9.804.23 9.804 4.747 9.804 1.518 9.804 8.896 9.803-1.11 9.804 7.017 9.804-20.513 9.804-.27 9.804-10.01 9.804 5.51 9.804-3.065 9.804 3.378 9.804-15.859 9.804 7.913 9.804-3.12 9.804-13.192 9.803-22.006 9.804-5.338 9.804-1.826 9.804-21.748 9.804 1.069 9.804-2.255 9.804 2.122 9.804 7.845 9.804-12.32 9.804 1.192 9.804 1.808 9.804-3.468 9.804 2.482 9.803-14.494 9.804 2.633" class="highcharts-graph" stroke="#FF8028" stroke-width="2" stroke-linejoin="round" stroke-linecap="round"/>
        </g>
        <g class="highcharts-markers highcharts-series-0 highcharts-line-series highcharts-color-undefined">
            <path fill="#FF8028" d="M73 233a4 4 0 1 1 0-.004zm9 1a4 4 0 1 1 0-.004zm10-6a4 4 0 1 1 0-.004zm10-21a4 4 0 1 1 0-.004zm10-27a4 4 0 1 1 0-.004zm10 21a4 4 0 1 1 0-.004zm9-3a4 4 0 1 1 0-.004zm10 5a4 4 0 1 1 0-.004zm10-18a4 4 0 1 1 0-.004zm10 6a4 4 0 1 1 0-.004zm10 15a4 4 0 1 1 0-.004zm9 0a4 4 0 1 1 0-.004zm10 5a4 4 0 1 1 0-.004zm10 1a4 4 0 1 1 0-.004zm10 9a4 4 0 1 1 0-.004zm10-1a4 4 0 1 1 0-.004zm9 7a4 4 0 1 1 0-.004zm10-21a4 4 0 1 1 0-.004zm10 0a4 4 0 1 1 0-.004zm10-10a4 4 0 1 1 0-.004zm10 6a4 4 0 1 1 0-.004zm9-4a4 4 0 1 1 0-.004zm10 4a4 4 0 1 1 0-.004zm10-16a4 4 0 1 1 0-.004zm10 8a4 4 0 1 1 0-.004zm10-3a4 4 0 1 1 0-.004zm9-13a4 4 0 1 1 0-.004zm10-22a4 4 0 1 1 0-.004zm10-6a4 4 0 1 1 0-.004zm10-2a4 4 0 1 1 0-.004zm10-21a4 4 0 1 1 0-.004zm9 1a4 4 0 1 1 0-.004zm10-2a4 4 0 1 1 0-.004zm10 2a4 4 0 1 1 0-.004zm10 7a4 4 0 1 1 0-.004zm10-12a4 4 0 1 1 0-.004zm9 1a4 4 0 1 1 0-.004zm10 2a4 4 0 1 1 0-.004zm10-3a4 4 0 1 1 0-.004zm10 2a4 4 0 1 1 0-.004zm10-14a4 4 0 1 1 0-.004zm9 2a4 4 0 1 1 0-.004z" class="highcharts-point"/>
        </g>
    </g>
    <text x="10" class="highcharts-title" y="21" color="#000" font-size="14" font-weight="700">
        <tspan>Anzahl Betreibungen seit 1974</tspan>
    </text>
    <g class="highcharts-data-labels highcharts-series-0 highcharts-line-series highcharts-color-undefined">
        <text x="5" y="16" font-size="11" font-weight="700" color="#000" transform="translate(60 235)" class="highcharts-label highcharts-data-label highcharts-data-label-color-undefined">
            <tspan x="5" y="16" class="highcharts-text-outline" fill="#FFF" stroke="#FFF" stroke-width="2" stroke-linejoin="round">37 565</tspan><tspan x="5" y="16">37 565</tspan>
        </text>
        <text x="5" y="16" font-size="11" font-weight="700" color="#000" transform="translate(437 115)" class="highcharts-label highcharts-data-label highcharts-data-label-color-undefined">
            <tspan x="5" y="16" class="highcharts-text-outline" fill="#FFF" stroke="#FFF" stroke-width="2" stroke-linejoin="round">76 524</tspan><tspan x="5" y="16">76 524</tspan>
        </text>
    </g>
    <g class="highcharts-axis-labels highcharts-xaxis-labels" text-anchor="middle" color="#000" cursor="default" font-size="11">
        <text x="78.824" y="368">
            1975
        </text>
        <text x="127.843" y="368">
            1980
        </text>
        <text x="176.863" y="368">
            1985
        </text>
        <text x="225.882" y="368">
            1990
        </text>
        <text x="274.902" y="368">
            1995
        </text>
        <text x="323.922" y="368">
            2000
        </text>
        <text x="372.941" y="368">
            2005
        </text>
        <text x="421.961" y="368">
            2010
        </text>
        <text x="462.781" y="368">
            2015
        </text>
    </g>
    <g class="highcharts-axis-labels highcharts-yaxis-labels" text-anchor="end" color="#000" cursor="default" font-size="11">
        <text x="50" y="354">
            <tspan>0</tspan>
        </text>
        <text x="50" y="292">
            <tspan>20 000</tspan>
        </text>
        <text x="50" y="230">
            <tspan>40 000</tspan>
        </text>
        <text x="50" y="169">
            <tspan>60 000</tspan>
        </text>
        <text x="50" y="107">
            <tspan>80 000</tspan>
        </text>
        <text x="50" y="46">
            <tspan>100 000</tspan>
        </text>
    </g>
    <text x="10" class="highcharts-credits" y="400" cursor="default" color="#000" font-size="10">
        <tspan>Quelle: Beitreibungs- und Konkursamt Basel-Stadt</tspan>
    </text>
</svg>
